!!!OTL: GUTER FREUND ICH FRAGE DICH
!!!ARE: Europa, Mitteleuropa, Deutschland, Westfalen, Muenster - Land
!!!SCT: E2131C
!!!YEM: Copyright 1995, estate of Helmut Schaffrath.
**kern
*ICvox
*Ivox
*M4/4
*k[b-]
*F:
=1
{4.cc
8b-
4a
4cc
=2
4b-
4a
4g
4f}
=3
{4.cc
8b-
4a
4cc
=4
4b-
4a
4g
4f}
=5
{4a
4a
4a
4a
=6
2g
4f
4r}
=7
{4a
4a
4a
4a
=8
4b-
4b-
2b-}
=9
{4g
4g
4g
4g
=10
4cc
4cc
4cc}
{4b-
=11
4a
4a
4cc
4a
=12
2g
4f
4r}
==
!!!AGN: geistliches Lied, Curiosum
!!!ONB: ESAC (Essen Associative Code) Database: ERK3
!!!AMT: simple quadruple
!!!AIN: vox
!!!EED: Helmut Schaffrath
!!!EEV: 1.0
*-
